X:1
T:Muiñeira de Chantada
C:Tradicional
O:Galicia
M:C
L:1/8
R:muiñeira
K:D
N: ad libitum
A8|d/c/B/A/ c/B/A/G/ B/A/G/F/ A/G/F/D/|G/F/E/D/ F/E/D/C/ E/D-HD2 A/||
M:6/8
K:F
|:D3 EFG|A3- A2A|BGA B2A|A3 E3|E3 FGA|B3- BAG|ABA GFE|F2E D2A|
D3 EFG|A3- A2A|BGA d2c|c3 B3|B^cd E2d|d3 A3|ABA GFE|1D3-D2A:|2D3 d2c|
K:D
|:A2B c2A|B3 A2G|E2F G2A|F2D d2c|A2B c2A|B3 A2G|E2F G2A|1D3 d2c:|2D3- DdA|
|:c2B2FD|B2A2FD|A2G2DC|B2A2dA|c2B2FD|B2A2FD|A2G2EF|1D3- DdA:|2D6|]

